carriers/omniva.svg

<svg width="128" height="64" viewBox="0 0 128 64" fill="none" xmlns="http://www.w3.org/2000/svg">
<rect width="128" height="64" rx="6" fill="white"/>
<path fill-rule="evenodd" clip-rule="evenodd" d="M10.0423 17.5603C10.1713 17.5173 10.2729 17.6463 10.3745 17.7167C11.8169 19.0408 13.7036 19.7754 15.6616 19.7754C17.6195 19.7754 19.5062 19.0408 20.9486 17.7167C21.0346 17.6463 21.1519 17.5173 21.277 17.5721C21.398 17.6619 21.5105 17.7627 21.6132 17.8731C22.7859 19.0458 23.9195 20.199 25.0844 21.3639C25.1548 21.4342 25.2564 21.5359 25.2095 21.6492C25.0679 21.8261 24.9051 21.985 24.7248 22.1222C23.2014 23.4856 21.3892 24.4866 19.4241 25.0501C17.1365 25.7027 14.7187 25.7499 12.4074 25.1874C10.0961 24.6248 7.97051 23.4716 6.23874 21.8408C6.16837 21.7548 6.03938 21.6688 6.06674 21.5398C6.16015 21.3922 6.27624 21.2603 6.41074 21.1489C7.58346 19.9996 8.72101 18.823 9.88591 17.6737C9.93172 17.6279 9.9845 17.5896 10.0423 17.5603V17.5603Z" fill="#EA5B08"/>
<path fill-rule="evenodd" clip-rule="evenodd" d="M30.8071 17.572C30.9088 17.486 31.0261 17.572 31.0964 17.658L34.8022 21.3638C34.8765 21.4342 34.9625 21.5202 34.9312 21.6335C34.8667 21.7381 34.7906 21.8352 34.7045 21.9228C33.4138 23.3794 32.7094 25.263 32.7274 27.2091C32.7455 29.1552 33.4848 31.0254 34.8022 32.4578C34.9156 32.5594 35.0016 32.7314 34.8609 32.8487C33.606 34.127 32.3473 35.3896 31.0964 36.621C31.0796 36.6457 31.058 36.6669 31.0329 36.6832C31.0078 36.6996 30.9798 36.7108 30.9503 36.7163C30.9209 36.7217 30.8907 36.7213 30.8614 36.715C30.8321 36.7087 30.8044 36.6967 30.7798 36.6796C30.7566 36.6641 30.7366 36.6442 30.7211 36.621C28.2568 34.0613 26.8872 30.6419 26.9032 27.0888C26.9193 23.5357 28.3197 20.1288 30.8071 17.5915V17.572Z" fill="#E9470A"/>
<path fill-rule="evenodd" clip-rule="evenodd" d="M9.86996 27.2471C9.97159 27.1454 10.1123 27.2197 10.1866 27.3213L13.5601 30.7066C13.7166 30.8488 13.8617 31.003 13.994 31.1679C14.0488 31.3086 13.9198 31.4102 13.8338 31.4962C12.5152 32.9375 11.784 34.8201 11.784 36.7735C11.784 38.7269 12.5152 40.6095 13.8338 42.0507C13.8924 42.1367 14.0058 42.2071 13.994 42.34C13.9823 42.4729 13.908 42.4651 13.8611 42.5394C12.6298 43.7707 11.4101 45.006 10.1592 46.2413C10.0889 46.3116 9.98723 46.3859 9.88559 46.3273C9.75145 46.2072 9.62725 46.0765 9.51423 45.9364C8.23341 44.5333 7.26479 42.8746 6.67233 41.0696C5.84498 38.5127 5.77978 35.7704 6.48469 33.1771C7.09182 30.9475 8.26309 28.9119 9.88559 27.2666L9.86996 27.2471Z" fill="#E6035C"/>
<path fill-rule="evenodd" clip-rule="evenodd" d="M19.7288 38.4543C19.8734 38.3683 19.9868 38.5247 20.1197 38.599C21.5475 39.9125 23.4178 40.6397 25.3579 40.6356C27.33 40.6406 29.2319 39.9039 30.686 38.5716C30.7876 38.4543 30.9596 38.3527 31.0769 38.513L34.466 41.9021C34.6342 42.0481 34.7874 42.2105 34.9234 42.3869C34.9453 42.4351 34.9486 42.4896 34.9327 42.5401C34.9168 42.5906 34.8829 42.6335 34.8374 42.6605C33.1817 44.2595 31.1464 45.411 28.923 46.0067C26.4197 46.6652 23.7822 46.611 21.3081 45.8503C19.2676 45.2162 17.404 44.1131 15.8666 42.6292C15.8439 42.6123 15.8248 42.591 15.8105 42.5666C15.7962 42.5422 15.7869 42.5151 15.7833 42.487C15.7796 42.4589 15.7816 42.4304 15.7893 42.4031C15.7969 42.3758 15.8099 42.3504 15.8275 42.3282C15.8384 42.3121 15.8516 42.2976 15.8666 42.2852C17.0394 41.1125 18.2121 39.9632 19.3457 38.7983C19.4864 38.685 19.5881 38.556 19.7366 38.4543H19.7288Z" fill="#E4022C"/>
<path fill-rule="evenodd" clip-rule="evenodd" d="M94.1579 22.0948C94.502 22.0144 94.8622 22.0378 95.1929 22.1621C95.5237 22.2864 95.8101 22.5059 96.0161 22.793C96.222 23.0801 96.3382 23.4219 96.35 23.775C96.3617 24.1281 96.2685 24.4768 96.082 24.777C95.8956 25.0771 95.6244 25.3152 95.3026 25.4612C94.9809 25.6072 94.623 25.6545 94.2744 25.5971C93.9257 25.5397 93.602 25.3802 93.344 25.1388C93.0859 24.8974 92.9053 24.5849 92.8249 24.2409C92.8249 24.194 92.8054 24.151 92.8015 24.1041C92.7327 23.6593 92.8347 23.2049 93.087 22.8322C93.3393 22.4595 93.7233 22.1961 94.1618 22.0948H94.1579Z" fill="#E4022C"/>
<path fill-rule="evenodd" clip-rule="evenodd" d="M54.7662 30.9646C54.3249 29.8423 53.5723 28.8694 52.597 28.1603C51.6216 27.4511 50.4641 27.0351 49.2605 26.9613C48.0568 26.8875 46.8571 27.1588 45.8024 27.7435C44.7478 28.3281 43.8819 29.2018 43.3068 30.2617C42.7316 31.3216 42.471 32.5237 42.5557 33.7266C42.6403 34.9295 43.0666 36.0833 43.7845 37.0522C44.5025 38.0211 45.4821 38.7649 46.6082 39.1961C47.7344 39.6273 48.9603 39.728 50.1417 39.4864C51.047 39.3096 51.902 38.9347 52.6454 38.3886C53.3888 37.8426 54.0022 37.1388 54.4417 36.3278C54.8844 35.5119 55.1429 34.6088 55.1989 33.6822C55.255 32.7556 55.1073 31.828 54.7662 30.9646V30.9646ZM50.5444 36.4959C49.9146 36.825 49.2014 36.9599 48.495 36.8836C47.7886 36.8073 47.1206 36.5232 46.5756 36.0673C46.0307 35.6114 45.6331 35.0041 45.4333 34.3222C45.2335 33.6404 45.2403 32.9145 45.453 32.2366C45.6657 31.5586 46.0747 30.959 46.6282 30.5134C47.1817 30.0679 47.8548 29.7965 48.5626 29.7336C49.2703 29.6706 49.9808 29.819 50.6043 30.1599C51.2277 30.5008 51.736 31.0189 52.065 31.6487C52.1433 31.7943 52.21 31.9459 52.2644 32.1021C52.5488 32.9193 52.5317 33.8112 52.2163 34.6169C51.9009 35.4226 51.3079 36.089 50.5444 36.4959Z" fill="#E4022C"/>
<path fill-rule="evenodd" clip-rule="evenodd" d="M61.9119 27.118C63.6749 26.9304 65.6529 26.7271 67.1891 27.7513C69.1163 27.1093 71.1535 26.8646 73.1778 27.032C74.0691 27.1337 75.0268 27.376 75.6327 28.0953C76.2387 28.8146 76.3364 29.698 76.3364 30.5619V38.814C76.3364 39.0329 76.3051 39.3144 76.0197 39.3026C75.1871 39.3026 74.3545 39.33 73.5218 39.3026C73.2795 39.3026 73.2482 39.0134 73.2638 38.8101V30.8825C73.2904 30.4052 73.1525 29.9333 72.8729 29.5456C72.7146 29.385 72.5241 29.2598 72.3138 29.1783C72.1036 29.0967 71.8785 29.0607 71.6533 29.0726C70.6173 29.0813 69.586 29.2125 68.5808 29.4635V38.9234C68.5904 38.9667 68.5911 39.0114 68.5827 39.0549C68.5744 39.0984 68.5573 39.1397 68.5324 39.1764C68.5075 39.213 68.4753 39.2441 68.4379 39.2678C68.4005 39.2916 68.3587 39.3074 68.3149 39.3144H68.2094C67.3359 39.3503 66.4611 39.3294 65.5903 39.2518C65.5612 39.0525 65.5481 38.8512 65.5512 38.6498V30.8825C65.5512 30.3352 65.4809 29.6785 64.9805 29.3188C64.4801 28.9592 63.8078 29.0491 63.2136 29.0765C62.4368 29.1402 61.665 29.2551 60.9033 29.4205C60.8056 32.6767 60.9307 35.9369 60.8447 39.1932C60.4126 39.2981 59.9662 39.3311 59.5234 39.2909C59.0307 39.3091 58.5374 39.2999 58.0458 39.2635C57.8034 39.2635 57.7722 38.9743 57.7878 38.7866V28.924C57.791 28.6879 57.8682 28.4587 58.0084 28.2687C58.1487 28.0787 58.3449 27.9374 58.5696 27.8647C59.6589 27.4819 60.7902 27.2313 61.9392 27.118H61.9119Z" fill="#E4022C"/>
<path fill-rule="evenodd" clip-rule="evenodd" d="M81.5781 27.419C83.1721 27.0556 84.8081 26.911 86.441 26.989C87.3013 26.9914 88.1451 27.225 88.8842 27.6652C89.4252 28.0455 89.799 28.6194 89.9279 29.268C90.0372 29.8858 90.0805 30.5134 90.0569 31.1404V37.8679C90.0817 38.3221 90.0634 38.7776 90.0022 39.2283C89.5064 39.2986 89.0048 39.3183 88.505 39.2869C88.0047 39.315 87.5029 39.2901 87.0078 39.2127C86.9648 39.0346 86.9412 38.8524 86.9375 38.6693V30.8511C86.9846 30.3854 86.8671 29.9179 86.6052 29.5299C86.4482 29.3632 86.2566 29.2331 86.0438 29.1487C85.8311 29.0643 85.6024 29.0276 85.3739 29.0412C84.4754 29.0415 83.5799 29.1425 82.7039 29.3422C82.5749 29.3891 82.313 29.3891 82.313 29.6002V38.1103C82.3281 38.4653 82.3137 38.8209 82.27 39.1736C82.0863 39.3612 81.797 39.2908 81.5664 39.3026C80.8784 39.3026 80.206 39.3299 79.5141 39.2752C79.2718 39.2752 79.2288 38.9859 79.2444 38.7827V29.0569C79.2278 28.8565 79.2642 28.6553 79.3499 28.4734C79.4357 28.2916 79.5678 28.1356 79.733 28.021C80.3179 27.7374 80.9386 27.5348 81.5781 27.419V27.419Z" fill="#E4022C"/>
<path fill-rule="evenodd" clip-rule="evenodd" d="M121.166 28.0366C120.384 27.29 119.242 27.0867 118.195 27.0007C116.34 26.8862 114.48 27.0764 112.687 27.5636V27.5636C112.421 27.6141 112.167 27.7164 111.94 27.8646C111.753 28.064 111.897 28.3376 111.94 28.5643C112.002 28.9822 112.113 29.3914 112.269 29.784C112.486 29.8137 112.708 29.7895 112.914 29.7136C114.461 29.2446 116.085 29.08 117.694 29.2289C118.109 29.2992 118.613 29.44 118.785 29.87C118.911 30.3917 118.949 30.9306 118.898 31.4649C117.593 31.5978 116.279 31.7072 114.989 31.8558C113.973 31.9965 112.894 32.2467 112.12 32.9777C111.767 33.3455 111.494 33.783 111.319 34.2622C111.144 34.7414 111.07 35.2519 111.104 35.7609C111.104 36.7538 111.35 37.8171 112.108 38.4973C112.953 39.3026 114.176 39.5137 115.31 39.6192C117.006 39.7616 118.714 39.6216 120.364 39.2048C120.849 39.1009 121.286 38.8398 121.607 38.4621C121.882 38.0194 122.018 37.5049 121.998 36.9845V30.5501C121.987 29.6589 121.842 28.6816 121.166 28.0366ZM118.875 37.305C117.848 37.6212 116.762 37.6961 115.701 37.5239C115.405 37.4849 115.124 37.3672 114.889 37.1829C114.654 36.9986 114.473 36.7546 114.364 36.4763C114.16 35.8461 114.212 35.161 114.509 34.5687C114.841 34.0058 115.529 33.8494 116.131 33.7869C117.05 33.6852 117.968 33.5679 118.898 33.4819C118.887 34.7407 118.914 36.0307 118.875 37.305V37.305Z" fill="#E4022C"/>
<path fill-rule="evenodd" clip-rule="evenodd" d="M98.5515 27.3134C99.3333 27.2274 100.115 27.2821 100.897 27.2665C101.155 27.2665 101.526 27.2665 101.585 27.5871C102.445 30.769 103.235 33.9471 104.095 37.1409C104.158 37.1364 104.217 37.1096 104.262 37.0651C104.308 37.0207 104.335 36.9616 104.341 36.8985L106.452 27.8568C106.506 27.6731 106.538 27.4659 106.694 27.3408C107.005 27.2731 107.323 27.2481 107.64 27.2665C108.242 27.2665 108.848 27.2391 109.45 27.2978C109.751 27.2978 109.778 27.6887 109.692 27.8998L106.506 38.8452C106.452 39.0719 106.323 39.3612 106.033 39.3299C104.771 39.3612 103.508 39.3299 102.257 39.3299C101.988 39.3299 101.827 39.0876 101.757 38.8608C100.741 35.4287 99.7046 31.9965 98.6844 28.5565C98.5827 28.1656 98.3404 27.7356 98.5437 27.3212L98.5515 27.3134Z" fill="#E4022C"/>
<path fill-rule="evenodd" clip-rule="evenodd" d="M93.0791 27.6027C93.255 27.4073 93.5403 27.4776 93.771 27.462C94.5194 27.4392 95.2684 27.4575 96.0148 27.5167C96.0577 27.7252 96.0813 27.9372 96.0852 28.15V38.9313C96.0963 38.9927 96.0909 39.0561 96.0694 39.1148C96.048 39.1735 96.0113 39.2254 95.9631 39.2652C95.9149 39.305 95.857 39.3313 95.7954 39.3413C95.7337 39.3513 95.6704 39.3447 95.6122 39.3222C94.7737 39.3574 93.9338 39.3339 93.0986 39.2518C93.0558 39.0737 93.0322 38.8916 93.0283 38.7084V28.4862C92.9995 28.1886 93.014 27.8884 93.0713 27.5949L93.0791 27.6027Z" fill="#E4022C"/>
</svg>

<svg xmlns="http://www.w3.org/2000/svg" width="128" height="64" fill="none"><rect width="128" height="64" fill="#fff" rx="6"/><path fill="#EA5B08" fill-rule="evenodd" d="M10.042 17.56c.13-.043.23.086.332.157a7.818 7.818 0 0 0 10.575 0c.086-.07.203-.2.328-.145.121.09.233.19.336.301 1.173 1.173 2.306 2.326 3.471 3.49.07.071.172.173.125.286a2.768 2.768 0 0 1-.484.473 13.548 13.548 0 0 1-5.3 2.928 13.737 13.737 0 0 1-13.186-3.21c-.07-.085-.2-.171-.172-.3.093-.148.21-.28.344-.391 1.172-1.15 2.31-2.326 3.475-3.475a.614.614 0 0 1 .156-.114Z" clip-rule="evenodd"/><path fill="#E9470A" fill-rule="evenodd" d="M30.807 17.572c.102-.086.22 0 .29.086l3.705 3.706c.075.07.16.156.13.27-.065.104-.141.201-.227.289a7.861 7.861 0 0 0 .097 10.535c.114.101.2.273.059.39a312.472 312.472 0 0 1-3.765 3.773.225.225 0 0 1-.235.094.226.226 0 0 1-.14-.094 13.655 13.655 0 0 1 .086-19.03v-.019Z" clip-rule="evenodd"/><path fill="#E6035C" fill-rule="evenodd" d="M9.87 27.247c.102-.102.242-.027.317.074l3.373 3.386c.157.142.302.296.434.46.055.142-.074.243-.16.33a7.818 7.818 0 0 0 0 10.554c.058.086.172.156.16.289-.012.133-.086.125-.133.2-1.231 1.23-2.45 2.466-3.702 3.701-.07.07-.172.145-.273.086a3.337 3.337 0 0 1-.372-.39 13.432 13.432 0 0 1-2.842-4.867 13.842 13.842 0 0 1-.187-7.893 13.45 13.45 0 0 1 3.4-5.91l-.015-.02Z" clip-rule="evenodd"/><path fill="#E4022C" fill-rule="evenodd" d="M19.729 38.454c.144-.086.258.07.39.145a7.713 7.713 0 0 0 5.239 2.037 7.857 7.857 0 0 0 5.328-2.064c.102-.118.274-.22.39-.059l3.39 3.39c.168.145.321.308.457.484a.214.214 0 0 1-.086.273 13.569 13.569 0 0 1-5.914 3.347c-2.503.658-5.14.604-7.615-.157a13.682 13.682 0 0 1-5.441-3.22.211.211 0 0 1-.04-.302.205.205 0 0 1 .04-.043c1.172-1.172 2.345-2.322 3.479-3.487.14-.113.242-.242.39-.344h-.007ZM94.158 22.095a1.786 1.786 0 1 1-1.333 2.146c0-.047-.02-.09-.023-.137a1.783 1.783 0 0 1 1.36-2.01h-.004ZM54.766 30.965a6.332 6.332 0 1 0-4.624 8.521 6.254 6.254 0 0 0 4.3-3.158 6.35 6.35 0 0 0 .324-5.363Zm-4.222 5.53a3.592 3.592 0 1 1 1.72-4.393 3.628 3.628 0 0 1-1.72 4.394ZM61.912 27.118c1.763-.188 3.74-.39 5.277.633a15.03 15.03 0 0 1 5.989-.719c.891.102 1.849.344 2.455 1.063.606.72.703 1.603.703 2.467v8.252c0 .219-.03.5-.316.489-.833 0-1.665.027-2.498 0-.243 0-.274-.29-.258-.493v-7.928a2.087 2.087 0 0 0-.391-1.336 1.594 1.594 0 0 0-1.22-.473c-1.036.008-2.067.14-3.072.39v9.46a.324.324 0 0 1-.266.391h-.106c-.873.036-1.748.015-2.619-.062-.029-.2-.042-.4-.039-.602v-7.767c0-.548-.07-1.204-.57-1.564-.5-.36-1.173-.27-1.767-.242-.777.063-1.549.178-2.31.343-.098 3.257.027 6.517-.06 9.773a4.049 4.049 0 0 1-1.32.098c-.493.018-.987.009-1.478-.027-.243 0-.274-.29-.258-.477v-9.863a1.13 1.13 0 0 1 .782-1.06c1.089-.382 2.22-.633 3.37-.746h-.028ZM81.578 27.419a18.011 18.011 0 0 1 4.863-.43 4.8 4.8 0 0 1 2.443.676c.541.38.915.954 1.044 1.603.11.618.153 1.245.129 1.872v6.728c.025.454.006.91-.055 1.36-.496.07-.997.09-1.497.059-.5.028-1.002.003-1.497-.074a2.534 2.534 0 0 1-.07-.544v-7.818a2.001 2.001 0 0 0-.333-1.321 1.562 1.562 0 0 0-1.231-.489c-.899 0-1.794.101-2.67.301-.13.047-.391.047-.391.258v8.51c.015.355 0 .71-.043 1.064-.184.187-.473.117-.704.129-.688 0-1.36.027-2.052-.028-.242 0-.285-.29-.27-.492v-9.726a1.147 1.147 0 0 1 .489-1.036 7.149 7.149 0 0 1 1.845-.602ZM121.166 28.037c-.782-.747-1.924-.95-2.971-1.036a17.006 17.006 0 0 0-5.508.563c-.266.05-.52.152-.747.3-.187.2-.043.474 0 .7.062.418.173.827.329 1.22.217.03.439.006.645-.07a12.507 12.507 0 0 1 4.78-.485c.415.07.919.211 1.091.641.126.522.164 1.06.113 1.595-1.305.133-2.619.242-3.909.39-1.016.142-2.095.392-2.869 1.123a3.677 3.677 0 0 0-1.016 2.783c0 .993.246 2.056 1.004 2.736.845.806 2.068 1.017 3.202 1.122 1.696.143 3.404.003 5.054-.414a2.25 2.25 0 0 0 1.243-.743 2.61 2.61 0 0 0 .391-1.478V30.55c-.011-.891-.156-1.868-.832-2.513Zm-2.291 9.268a6.984 6.984 0 0 1-3.174.219 1.67 1.67 0 0 1-1.337-1.048 2.522 2.522 0 0 1 .145-1.907c.332-.563 1.02-.72 1.622-.782.919-.102 1.837-.22 2.767-.305-.011 1.259.016 2.549-.023 3.823ZM98.552 27.313c.781-.086 1.563-.03 2.345-.046.258 0 .629 0 .688.32.86 3.182 1.65 6.36 2.51 9.554a.265.265 0 0 0 .246-.242l2.111-9.042c.054-.184.086-.391.242-.516.311-.068.629-.093.946-.075.602 0 1.208-.027 1.81.032.301 0 .328.39.242.602l-3.186 10.945c-.054.227-.183.516-.473.485-1.262.031-2.525 0-3.776 0-.269 0-.43-.242-.5-.47-1.016-3.431-2.052-6.863-3.073-10.303-.101-.391-.344-.821-.14-1.236l.008-.008ZM93.08 27.603c.175-.196.46-.125.691-.141a20.487 20.487 0 0 1 2.244.055c.043.208.066.42.07.633v10.781a.352.352 0 0 1-.473.391c-.838.035-1.678.012-2.513-.07a2.558 2.558 0 0 1-.07-.544V28.486a3.095 3.095 0 0 1 .042-.891l.008.008Z" clip-rule="evenodd"/></svg>
